packages/Snapp/src/RatingStarOutlineIcon/index.svg

<?xml version="1.0" encoding="UTF-8"?>
<svg width="24px" height="24px" viewBox="0 0 24 24" version="1.1" xmlns="http://www.w3.org/2000/svg" xmlns:xlink="http://www.w3.org/1999/xlink">
    <title>Icons/24/RatingStarOutline</title>
    <g id="Icons/24/RatingStarOutline" stroke="none" stroke-width="1" fill="none" fill-rule="evenodd">
        <path d="M13.0246364,3.23432054 C13.3095134,3.40426511 13.5476468,3.64239857 13.7175914,3.92727558 L15.9152251,7.61115492 L20.0979087,8.56284745 C21.1749505,8.80790844 21.8494041,9.87968446 21.6043431,10.9567262 C21.5307481,11.2801761 21.377857,11.5802417 21.1594386,11.8299005 L18.3349673,15.0583557 L18.7223743,19.3304133 C18.8221316,20.4304689 18.0112297,21.4031094 16.9111741,21.5028668 C16.5808129,21.5328253 16.2481875,21.4801426 15.943253,21.3495632 L12,19.6609788 L8.05674704,21.3495632 C7.04135874,21.7843739 5.86574013,21.3137228 5.43092939,20.2983345 C5.30034996,19.9933999 5.24766728,19.6607746 5.27762574,19.3304133 L5.66503268,15.0583557 L2.84056138,11.8299005 C2.11325955,10.9985727 2.19758921,9.73505381 3.02891696,9.00775198 C3.2785757,8.7893336 3.57864136,8.63644251 3.90209126,8.56284745 L8.08477488,7.61115492 L10.2824086,3.92727558 C10.8482996,2.97867603 12.0760368,2.66842949 13.0246364,3.23432054 Z M12,4.95191196 L9.8023663,8.6357913 C9.55329193,9.05331308 9.16188469,9.36397137 8.70341831,9.51307663 L8.52849704,9.56131149 L4.34581342,10.513004 L7.17028472,13.7414592 C7.49040331,14.1073643 7.66490542,14.5756134 7.66503905,15.0577169 L7.65685948,15.2389823 L7.26945254,19.51104 L11.2127055,17.8224557 C11.659624,17.6310757 12.1588795,17.6098113 12.6174285,17.7586624 L12.7872945,17.8224557 L16.7305475,19.51104 L16.3431405,15.2389823 C16.2992328,14.7547979 16.4332875,14.2734066 16.7165527,13.8832982 L16.8297153,13.7414592 L19.6541866,10.513004 L15.471503,9.56131149 C14.9974479,9.45344901 14.5810429,9.17719731 14.2975614,8.78724593 L14.1976337,8.6357913 L12,4.95191196 Z" id="Path" fill="#404040"></path>
    </g>
</svg>

<svg viewBox="0 0 24 24" xmlns="http://www.w3.org/2000/svg" fill="currentColor" focusable="false">
  <path d="M13.025 3.234a2 2 0 01.693.693l2.197 3.684 4.183.952a2 2 0 011.061 3.267l-2.824 3.228.387 4.272a2 2 0 01-2.779 2.02L12 19.66l-3.943 1.69a2 2 0 01-2.78-2.02l.388-4.272-2.824-3.228a2 2 0 011.061-3.267l4.183-.952 2.197-3.684a2 2 0 012.743-.693zM12 4.952L9.802 8.636a2 2 0 01-1.099.877l-.175.048-4.182.952 2.824 3.228a2 2 0 01.495 1.317l-.008.181-.388 4.272 3.944-1.689a2 2 0 011.404-.063l.17.063 3.944 1.689-.388-4.272a2 2 0 01.374-1.356l.113-.142 2.824-3.228-4.182-.952a2 2 0 01-1.174-.774l-.1-.151L12 4.952z" fill="none"/>
</svg>
